source/images/icons/icon-utility/log-out.svg

<?xml version="1.0" encoding="UTF-8"?>
<svg width="24px" height="24px" viewBox="0 0 24 24" version="1.1" xmlns="http://www.w3.org/2000/svg" xmlns:xlink="http://www.w3.org/1999/xlink">
    <!-- Generator: Sketch 55.2 (78181) - https://sketchapp.com -->
    <title>Icons/24px/Log-out</title>
    <desc>Created with Sketch.</desc>
    <g id="Icons/24px/Log-out" stroke="none" stroke-width="1" fill="none" fill-rule="evenodd">
        <path d="M21.9267767,11.623699 C22.0732233,11.984835 22,12.4142136 21.7071068,12.7071068 L16.7071068,17.7071068 C16.3165825,18.0976311 15.6834175,18.0976311 15.2928932,17.7071068 C14.9023689,17.3165825 14.9023689,16.6834175 15.2928932,16.2928932 L18.5857864,13 L8,13 C7.44771525,13 7,12.5522847 7,12 C7,11.4477153 7.44771525,11 8,11 L21,11 C21.4142136,11 21.7696068,11.2518398 21.921415,11.6107549 L21.9267767,11.623699 Z M15.2928932,7.70710678 C14.9023689,7.31658249 14.9023689,6.68341751 15.2928932,6.29289322 C15.6834175,5.90236893 16.3165825,5.90236893 16.7071068,6.29289322 L18.7422869,8.32807331 C19.1328112,8.7185976 19.1328112,9.35176258 18.7422869,9.74228687 C18.3517626,10.1328112 17.7185976,10.1328112 17.3280733,9.74228687 L15.2928932,7.70710678 Z M11,21 C11.5522847,21 12,21.4477153 12,22 C12,22.5522847 11.5522847,23 11,23 L5,23 C3.34314575,23 2,21.6568542 2,20 L2,4 C2,2.34314575 3.34314575,1 5,1 L11,1 C11.5522847,1 12,1.44771525 12,2 C12,2.55228475 11.5522847,3 11,3 L5,3 C4.44771525,3 4,3.44771525 4,4 L4,20 C4,20.5522847 4.44771525,21 5,21 L11,21 Z" id="Icon" fill="#ADB5BD"></path>
    </g>
</svg>

<svg width="24" height="24">
    <title>
        Icons/24px/Log-out
    </title>
    <path d="M21.927 11.624a1 1 0 0 1-.22 1.083l-5 5a1 1 0 0 1-1.414-1.414L18.586 13H8a1 1 0 0 1 0-2h13a1 1 0 0 1 .921.61l.006.014zm-6.634-3.917a1 1 0 1 1 1.414-1.414l2.035 2.035a1 1 0 1 1-1.414 1.414l-2.035-2.035zM11 21a1 1 0 0 1 0 2H5a3 3 0 0 1-3-3V4a3 3 0 0 1 3-3h6a1 1 0 0 1 0 2H5a1 1 0 0 0-1 1v16a1 1 0 0 0 1 1h6z" fill="#ADB5BD" fill-rule="evenodd"/>
</svg>
